X:1
T:Rêve de la bien aimée
T:Rêve de la bien aimée
T:Georges Bizet
C:Georges Bizet
%%score 1 { ( 2 3 5 ) | 4 }
L:1/8
Q:1/4=63
M:2/4
K:C
V:1 treble nm="Voice"
V:2 treble nm="Piano"
V:3 treble 
V:5 treble 
V:4 bass 
V:1
"^Andantino" z4 | z4 | z4 | z2 z!pp! (G | c B c ^c | d4- | (3d B =c (3F E E | G4) | z (E G c- | %9
w: |||J'ai|rê- vé     que   mon  |coeur|_ é- tait  , com- me   ja-|dis,|U- ne sour-|
 c B2 F | A2- (A/G/F/E/) | G4) | z (B c) z/ (^c/ | (e2 d2-) | d (3(=c/d/c/) B A | G4) | z2 E G | %17
w: * ce   d'eaux  |vi- * * * *|ves;|Et   lui,  l'oi-|seau _|_ de * * pa- ra-|dis|Qui   chan-|
 (Gc) c e | e2- (e/^f/e/^c/) | B2- (B/^c/B/^F/) | E4 | z4 | z (^G B B | B (A/^G/) A ^d | %24
w: tait * sur ses|ri- * * * *||ves,||J'ai   rê- vé|que   mon  * oeil   é-|
 ^c2 (3B A ^G | B4) | z2 ((^cB) | A ^c{ce} ^d B | e4- |"^cresc." e) z/ e/ e2- | e z!f! e2- | %31
w: tait   un   pur   ra-|yon|De *|l'au- be   prin- ta-|niè-|re; Et   lui,|_ lui,|
[Q:1/4=63]"_rit.""^dim." (e3!pp! =G) |[Q:1/4=63]"^a Tempo"{d} (c B c ^c | d4- | (3d =c B (3c E A | %35
w: _ le|lé- ger   pa- pil-|lon|_ Vo- lant   dans   sa   lu-|
[Q:1/4=53]"^smorzando" A2 G2- | G) z"^long" !fermata!z2 |[Q:1/4=70]"^Un peu plus vite"!pp! _B4 | %38
w: miè- re.|_|Ah!|
 z2 _B3/2 B/ | _B4 | z2"^cresc." _B B | =B4 | z B B2- | B2 (3B B B | B2 z B | =c4 | z ^d d3/2 ^f/ | %47
w: J'ai rê-|vé...|que   mon|corps|é- tait|_ i- na- ni-|mé,   Plus  |froid,|plus   blanc   que  |
 ^f4 | A2 z3/2 ^d/ | e2 (3z ^A A | ^c2 c c/ c/ | e2 z!f! ^c |!<(! ^B ^c e3/2 g/!<)! | (g4 | %54
w: nei-|ge; Et |lui,  le   lin-|ceul _ bien   fer-|mé Qui |le   couvre   et   pro-|tè-|
 G2-) G z |!ff! (3z a g (3e f e |[Q:1/4=55]"^slargando" (3c d c (3D !fermata!B3/2 A/ | %57
w: ge! _|J'ai   rê- vé   que   mon |corps   é- tait   plus   froid   que |
[Q:1/4=63]"^1er Tempo" G4- | G4 | C2 z2 | z4 | z4 | z2 z!pp! (G | c B c ^c | d4- | %65
w: nei-||ge!|||J'ai|rê- vé     que   ma  |lèvre|
 (3d B =c (3F E E | G4) | z (E G c | B3 F | A2- (A/G/F/E/) | G4) | z (B c) z/ (^c/ | e3 d | %73
w: _ é- tait,  aux   jours   heu-|reux,|U- ne gre-|nade   é-|clo- * * * *|se;|Et   lui,  et|lui   le|
{de} d =c B3/2 A/ | G4) | z2 E G | (Gc) c e | e2- (e/^f/e/^c/) | B2- (B/^c/B/^F/) | E4 | z4 | %81
w: zé- phir   a- mou-|reux,|Qui   sur  |el- * le   se  |po- * * * *||se,||
 z (^G B B | B (A/^G/) A ^d | ^c2 (3B A ^G | B4) | z2 (^c B | (A^c){ce} ^d B |"^cresc." e4- | %88
w: J'ai   rê- vé|que   mon  * sein   é-|tait   une   o  - a-|sis|De   dé-|serts   * en- tou-|ré-|
 e) z/ e/ e2- | e z!f! e2- |[Q:1/4=63]"_rit.""^dim." (e3!pp! =G) | %91
w: e; Et   lui,|_ lui,|_ le|
[Q:1/4=63]"^a Tempo"{d} (c B c ^c | d4- | (3d =c B (3c E A |[Q:1/4=53]"^smorzando" A2 G2- | %95
w: vo- ya- geur   as-|sis|_ A   son   om- bre   do-|ré- e|
 G) z"^long" !fermata!z2 |!pp![Q:1/4=73]"^Un peu plus vite" _B4 | z2 _B3/2 B/ | _B4 | %99
w: _|Ah!|J'ai rê-|vé...|
 z2"^cresc." _B B | =B3- B | z3/2 B/ B2 | z B2 ^F | z2 B3/2 B/ | =c3 c | c c ^d3/2 ^f/ | ^f4 | %107
w: que   mon|â- me|er- rait|seu- le  |au   mi-|lieu   des |om- bres   é- ter-|nel-|
 A2 z ^d/ d/ | e2 z3/2 ^A/ | ^c- c z c | e2 z!f! ^c | ^B ^c e3/2 g/ |"^Animez" g4- | g2 G z | %114
w: les; Et   que |lui   mon  |an- ge, vers |Dieu L'em-|por- tait   sur   ses  |ai-|* les!|
!ff! (3z a g (3(ef) e |[Q:1/4=55]"^slargando" (3c d e (3^f !fermata!b3/2 a/ | %116
w: Et   que   lui   * vers |Dieu   l'em- por- tait   sur   ses  |
[Q:1/4=63]"^1er Tempo" g4- | g4 | c2 !fermata!z2 |] %119
w: ai-||les!|
V:2
!ppp! [EG]4 | [FG]3 D | [EG]4 | [FG]3 D | [EG]4 | [FG]3 D | [EG]4 | [FG]3 D | [EG]4 | [FG]3 D | %10
 [EG]4 | [FG]3 D | [EG]4 | [FG]3 D | [EG]4 | [FG]3 D | [EG]4 | [FG]3 D | [E^GB]4 | [^FAB]3 F | %20
 [E^GB]4 | [AB]3 ^F | [^GB]4 | [AB]3 ^F | [^GB]4 | [AB]3 ^F | [^GB]4 | [AB]3 ^F | [^GB]4 | %29
"_cresc." [AB]4 | [=GB]4 | [GB]2- [GB] z |!ppp! [EG]4 | [=FG]3 D | [EG]4 | [AB]2 z z | %36
 F2- F !fermata!z |!pp! z GGG | [G_B][GB][GB][GB] | [G_B^c][GBc][GBc][GBc] | %40
 [G_B^ce][GBce][GBce][GBce] |"_cresc." [^F=Bd^f][FBdf][FBdf][FBdf] | [Bd^fb][Bdfb][Bdfb][Bdfb] | %43
 [d^fbd'][dfbd'][dfbd'][dfbd'] | [^fbd'^f'][fbd'f'][fbd'f'][fbd'f'] | [A=c][Ac][Ac][Ac] | %46
 [Ac^d][Acd][Acd][Acd] | [Ac^d^f][Acdf][Acdf][Acdf] | [Ac^d^fa][Acdfa][Acdfa][Acdfa] | %49
 !///-![e=g^a]2 ^c2 | !///-![g^a^c']2 e2 | !///-![^a^c'e']2 g2 |!f! [^a^c'e'g'] z z2 | %53
 (6:4:6(g/d/B/G/B/d/) (6:4:6(g/d/B/G/B/d/) | (6:4:6(g/^d/B/G/B/d/) (6:4:6(g/d/B/G/B/d/) | %55
 !arpeggio![G=ceg] z !arpeggio![^Gc^g] z | !arpeggio![Aca] z !arpeggio![C=D^F] !fermata!z | %57
!ff! z !^![E,C]!^![=F,CD]!^![A,C=F] | !^![B,EG]2 !^![B,DG]2 |!ppp! [CE]4 | [FG]3 D | E4 | [FG]3 D | %63
 E4 | [FG]3 D | E4 | [FG]3 D | E4 | [FG]3 D | E4 | [FG]3 D | E4 | [FG]3 D | E4 | [FG]3 D | E4 | %76
 [EG]4 | [E^G]4 | [AB]3 ^F | ^G4 | [AB]3 ^F | ^G4 | [AB]3 ^F | ^G4 | [AB]3 ^F | ^G4 | [AB]3 ^F | %87
 ^G4 | ^G4 | =G4 | [GB]2 z2 |!ppp! E4 | [=FG]3 D | E4 | [FG]2 z2 | !fermata!F2- F z |!pp! z GGG | %97
 [G_B][GB][GB][GB] | [G_B^c][GBc][GBc][GBc] | [G_B^ce][GBce][GBce][GBce] | %100
"_cresc." [^F=Bd^f][FBdf][FBdf][FBdf] | [Bd^fb][Bdfb][Bdfb][Bdfb] | [d^fbd'][dfbd'][dfbd'][dfbd'] | %103
 [^fbd'^f'][fbd'f'][fbd'f'][fbd'f'] | [A=c][Ac][Ac][Ac] | [Ac^d][Acd][Acd][Acd] | %106
 [Ac^d^f][Acdf][Acdf][Acdf] | [Ac^d^fa][Acdfa][Acdfa][Acdfa] | !///-![e=g^a]2 ^c2 | %109
 !///-![g^a^c']2 e2 | !///-![^a^c'e']2 g2 |!f! [^a^c'e'g'] z z2 | %112
!f! (6:4:6(g/d/B/G/B/d/) (6:4:6(g/d/B/G/B/d/) | (6:4:6(g/^d/B/G/B/d/) (6:4:6(g/d/B/G/B/d/) | %114
 !arpeggio![G=ceg] z !arpeggio![^Gc^g] z | !arpeggio![Aca] z !arpeggio![C=D^F] !fermata!z | %116
!ff! z !^![E,C]!^![=F,CD]!^![A,C=F] | !^![B,EG]2 !^![B,DG]2 | !^!C2 !fermata![cec']2 |] %119
V:3
 z G, A,2- | A,B, A,2 | z G, A,2- | A,B, A,2 | z G, A,2- | A,B, A,2 | z G, A,2- | A,B, A,2 | %8
 z G, A,2- | A,B, A,2 | z G, A,2- | A,B, A,2 | z G, A,2- | A,B, A,2 | z G, A,2- | A,B, A,2 | %16
 z G, A,2- | A,B, A,2 | z B, ^C2- | C^D ^C2 | z B, ^C2- | C^D ^C2 | z B, ^C2- | C^D ^C2 | %24
 z B, ^C2- | C^D ^C2 | z B, ^C2- | C^D ^C2 | z B, ^C2- | C^D E2 | z B, ^C2- | C^D E2 | z G, A,2- | %33
 A,B, A,2 | z G, A,2 | A,B,DE | x4 | x4 | x4 | x4 | x4 | x4 | x4 | x4 | x4 | x4 | x4 | x4 | x4 | %49
 x4 | x4 | x4 | x4 | x4 | x4 | x4 | x4 | x4 | x4 | z G, A,2- | A,B, A,2 | z G, A,2- | A,B, A,2 | %63
 z G, A,2- | A,B, A,2 | z G, A,2- | A,B, A,2 | z G, A,2- | A,B, A,2 | z G, A,2- | A,B, A,2 | %71
 z G, A,2- | A,B, A,2 | z G, A,2- | A,B, A,2 | z G, A,2- | A,B, C2 | z B, ^C2- | C^D ^C2 | %79
 z B, ^C2- | C^D ^C2 | z B, ^C2- | C^D ^C2 | z B, ^C2- | C^D ^C2 | z B, ^C2- | C^D ^C2 | %87
 z B, ^C2- | C^D E2 | z B, ^C2- | C^D E2 | z A, A,2- | A,B, A,2 | z A, A,2- | A,B,DE | x4 | x4 | %97
 x4 | x4 | x4 | x4 | x4 | x4 | x4 | x4 | x4 | x4 | x4 | x4 | x4 | x4 | x4 | x4 | x4 | x4 | x4 | %116
 x4 | x4 | x4 |] %119
V:4
 [C,,G,,]4 | [C,,G,,]4 | [C,,G,,]4 | [C,,G,,]4 | [C,,G,,]4 | [C,,G,,]4 | [C,,G,,]4 | [C,,G,,]4 | %8
 [C,,G,,]4 | [C,,G,,]4 | [C,,G,,]4 | [C,,G,,]4 | [C,,G,,]4 | [C,,G,,]4 | [C,,G,,]4 | [C,,G,,]4 | %16
 [C,,G,,]4 | [C,,G,,]4 | [B,,,B,,]4 | [B,,,B,,]4 | [E,,B,,]4 | [E,,B,,]4 | [E,,B,,]4 | [E,,B,,]4 | %24
 [E,,B,,]4 | [E,,B,,]4 | [E,,B,,]4 | [E,,B,,]4 | [E,,B,,]4 | [E,,B,,]4 | [E,,B,,]4 | [E,,B,,]4 | %32
 [=C,,G,,]4 | [C,,G,,]4 | [C,,G,,]4- | [C,,G,,]2 z2 | !fermata!z4 | z EEE | [^CE][CE][CE][CE] | %39
 [_B,^CE][B,CE][B,CE][B,CE] | [G,_B,^CE][G,B,CE][G,B,CE][G,B,CE] | [^F,B,D][F,B,D][F,B,D][F,B,D] | %42
 [D,^F,B,D][D,F,B,D][D,F,B,D][D,F,B,D] | [B,,D,^F,D][B,,D,F,D][B,,D,F,D][B,,D,F,D] | %44
 [^F,,B,,D,^F,][F,,B,,D,F,][F,,B,,D,F,][F,,B,,D,F,] | [^D^F][DF][DF][DF] | [C^D^F][CDF][CDF][CDF] | %47
 [A,C^D^F][A,CDF][A,CDF][A,CDF] | [^F,A,C^D^F][F,A,CDF][F,A,CDF][F,A,CDF] | %49
 [E,=G,^A,^CE][E,G,A,C][E,G,A,C][E,G,A,C] | [^C,E,G,^A,][C,E,G,A,][C,E,G,A,][C,E,G,A,] | %51
 [^A,,^C,E,G,][A,,C,E,G,][A,,C,E,G,][A,,C,E,G,] | [G,,^A,,^C,E,G,] z z2 | %53
 [D,,D,] (3(D/B,/G,/) (6:4:6(D,/G,/B,/D/B,/G,/) | %54
 (6:4:6(^D,/G,/B,/^D/B,/G,/) (6:4:6(D,/G,/B,/D/B,/G,/) | !arpeggio![E,G,=CE] z !arpeggio![E,CE] z | %56
 !arpeggio![F,CF] z !arpeggio![=D,,=D,^F,] !fermata!z | !^!G,,4 | !^![G,,G,]2 !^![G,,F,]2 | %59
 [C,,G,,]2[K:treble] (G/e/c/g/ | d2 G) z |[K:bass] [C,,G,,]2[K:treble] (G/e/c/g/ | d2 G) z | %63
[K:bass] [C,,G,,]2[K:treble] (G/e/c/g/ | d2 G) z |[K:bass] [C,,G,,]2[K:treble] (G/e/c/g/ | %66
 d2 G) z |[K:bass] [C,,G,,]2[K:treble] (G/e/c/g/ | d2 G) z | %69
[K:bass] [C,,G,,]2[K:treble] (G/e/c/g/ | d2 G) z |[K:bass] [C,,G,,]2[K:treble] (G/e/c/g/ | %72
 d2 G) z |[K:bass] [C,,G,,]2[K:treble] (G/e/c/g/ | d2 G) z | %75
[K:bass] [C,,G,,]2[K:treble] (G/e/c/g/ | d2 G) z |[K:bass] [B,,,B,,]2[K:treble] (B/^g/e/b/ | %78
 ^f2 B) z |[K:bass] [E,,B,,]2[K:treble] (B/^g/e/b/ | ^f2 B) z | %81
[K:bass] [E,,B,,]2[K:treble] (B/^g/e/b/ | ^f2 B) z |[K:bass] [E,,B,,]2[K:treble] (B/^g/e/b/ | %84
 ^f2 B) z |[K:bass] [E,,B,,]2[K:treble] (B/^g/e/b/ | ^f2 B) z | %87
[K:bass] [E,,B,,]2[K:treble]"^cresc." (B/^g/e/b/ | e2 B) z | %89
[K:bass] [E,,B,,]2[K:treble] (B/=g/e/b/ | e2 B) z |[K:bass] [=C,,G,,]2[K:treble] (G/e/c/g/ | %92
 d2 B) z |[K:bass] [C,,G,,]2[K:treble] (G/e/c/g/ | d2 B) z |[K:bass] z4 | z EEE | %97
 [^CE][CE][CE][CE] | [_B,^CE][B,CE][B,CE][B,CE] | [G,_B,^CE][G,B,CE][G,B,CE][G,B,CE] | %100
 [^F,B,D][F,B,D][F,B,D][F,B,D] | [D,^F,B,D][D,F,B,D][D,F,B,D][D,F,B,D] | %102
 [B,,D,^F,D][B,,D,F,D][B,,D,F,D][B,,D,F,D] | [^F,,B,,D,^F,][F,,B,,D,F,][F,,B,,D,F,][F,,B,,D,F,] | %104
 [^D^F][DF][DF][DF] | [C^D^F][CDF][CDF][CDF] | [A,C^D^F][A,CDF][A,CDF][A,CDF] | %107
 [^F,A,C^D^F][F,A,CDF][F,A,CDF][F,A,CDF] | [E,=G,^A,^CE][E,G,A,C][E,G,A,C][E,G,A,C] | %109
 [^C,E,G,^A,][C,E,G,A,][C,E,G,A,][C,E,G,A,] | [^A,,^C,E,G,][A,,C,E,G,][A,,C,E,G,][A,,C,E,G,] | %111
 [G,,^A,,^C,E,G,] z z2 | [D,,D,] (3(D/B,/G,/) (6:4:6(D,/G,/B,/D/B,/G,/) | %113
 (6:4:6(^D,/G,/B,/^D/B,/G,/) (6:4:6(D,/G,/B,/D/B,/G,/) | !arpeggio![E,G,=CE] z !arpeggio![E,CE] z | %115
 !arpeggio![F,CF] z !arpeggio![=D,,=D,^F,] !fermata!z | !^!G,,4 | !^![G,,G,]2 !^![G,,F,]2 | %118
 [C,,C,E,]2 !fermata![CG]2 |] %119
V:5
 x4 | x4 | x4 | x4 | x4 | x4 | x4 | x4 | x4 | x4 | x4 | x4 | x4 | x4 | x4 | x4 | x4 | x4 | x4 | %19
 x4 | x4 | x4 | x4 | x4 | x4 | x4 | x4 | x4 | x4 | x4 | x4 | x4 | x4 | x4 | x4 | x4 | x4 | x4 | %38
 x4 | x4 | x4 | x4 | x4 | x4 | x4 | x4 | x4 | x4 | x4 | x4 | x4 | x4 | x4 | x4 | x4 | x4 | x4 | %57
 x4 | x4 | G2 x2 | x4 | G2 x2 | x4 | G2 x2 | x4 | G2 x2 | x4 | G2 x2 | x4 | G2 x2 | x4 | G2 x2 | %72
 x4 | G2 x2 | x4 | G2 x2 | x4 | B2 x2 | x4 | B2 x2 | x4 | B2 x2 | x4 | B2 x2 | x4 | B2 x2 | x4 | %87
 B2 x2 | B2 x2 | B2 x2 | x4 | G2 x2 | x4 | G2 x2 | x4 | x4 | x4 | x4 | x4 | x4 | x4 | x4 | x4 | %103
 x4 | x4 | x4 | x4 | x4 | x4 | x4 | x4 | x4 | x4 | x4 | x4 | x4 | x4 | x4 | x4 |] %119

